X: 35398
T: Rosslare, The
R: reel
M: 4/4
K: Dmajor
d2AF DF~F2|GEBE dEBE|d2AF DF~F2|GBAG FDDA|BdAF DF~F2|GB~B2 dBAB|dfaf gfed|cdeg fddc:|
dA~A2 d2fe|dBgB aBgB|dA~A2 DEFA|B2AG FDD2|dA~A2 d2fe|dBgB aBgB|1 d2fd BdAF|GBAG FDD2:|
[2 dfaf gfed|cdeg fddc||

